packages/blockchain-info-components/src/Images/img/banks/bank-logo-navy-federal.svg

<svg fill="none" height="32" viewBox="0 0 32 32" width="32" xmlns="http://www.w3.org/2000/svg"><path clip-rule="evenodd" d="m22.0272 8.25493.0476-.07139c.5203-.67427 1.2898-1.08835 2.1291-1.15974.084-.01269.1665-.0238.249-.0238s.1777.01111.2586.0238c1.5247.13009 2.7209 1.40882 2.7209 2.96995 0 1.54845-1.1946 2.82715-2.7209 2.96835-.0825.0111-.1776.0111-.2601.0111-.0936 0-.1761 0-.2713-.0111-1.5136-.1412-2.7082-1.4183-2.7082-2.96835 0-.60287.1761-1.17084.4966-1.65632zm3.2543 4.14407c-.0677.1009-.1347.2008-.2146.2791.1904-.0714.3681-.165.5331-.2951h-.3078zm.4121-1.0345c-.0825.3078-.1761.5918-.2951.8282h.4125c.2364-.2253.4268-.5093.568-.8282zm.9709-1.2771h-.8281c0 .3791-.0349.7567-.1063 1.0883h.733c.1189-.3316.1903-.7108.2014-1.0883zm-.2014-1.27719h-.733c.0714.33158.1063.69807.1063 1.08835h.8281c-.0126-.39028-.0825-.75677-.2014-1.08835zm-.3903 3.38249h.0952c.284-.2237.533-.5077.7091-.8282h-.2951c-.13.3078-.2966.5918-.5092.8282zm.5917-1.017h.3078c.165-.3316.2491-.7092.2729-1.0883h-.3903c-.0127.3775-.0714.7456-.1904 1.0883zm.1904-1.27714h.3903c-.0238-.39028-.1079-.75677-.2729-1.08835h-.3078c.119.33158.1793.69807.1904 1.08835zm.0222-1.27714c-.1761-.31889-.4251-.60288-.7091-.82816h-.0952c.2142.23639.3792.50927.5092.82816zm-1.1819-.00159h.6854c-.1412-.31889-.33-.60287-.5664-.82816h-.4141c.1174.23639.2126.50927.2951.82816zm-.403-1.01695h.3078c-.165-.1301-.3427-.2364-.5331-.2951.0841.0825.1539.17611.2253.2951zm-.2253.00158c-.1539-.22528-.33-.36807-.5204-.40297v.40297zm.119.1888h-.6378v.82816h.9456c-.0825-.31889-.1888-.60288-.3078-.82816zm.3554 1.01695h-.9948v1.08835h1.1011c0-.39028-.0349-.75677-.1063-1.08835zm.1063 1.27719h-1.1011v1.0883h.9948c.0714-.3316.1063-.7108.1063-1.0883zm-.1555 1.2787h-.9456-.0015v.8281h.6393c.119-.2252.2253-.5092.3078-.8281zm-.4252 1.0169h-.5204v.3903c.1888-.0365.3665-.1666.5204-.3903zm-1.4659-4.78012c.073-.11741.1539-.2126.2253-.2951-.1777.0714-.3554.165-.5204.2951zm-.3443.80594c.0714-.22528.1539-.43787.2491-.61556h-.4268c-.2126.20148-.3903.46009-.533.75676-.0112.0238-.0223.0476-.035.0714h.6981v-.0238zm-1.0281 1.48974h.8282c.0111-.37917.0476-.74566.1063-1.08835h-.7219c-.1301.33158-.2014.70918-.2126 1.08835zm.2126 1.27714h.7219c-.0587-.3316-.1063-.7092-.1063-1.0883h-.8282c.0112.3775.0825.7567.2126 1.0883zm.2951-3.38403c-.2126.15389-.4014.35538-.5552.58067-.0587.07139-.1174.16658-.165.24908h.295c.0059-.011.0091-.02201.0119-.03175v-.00002c.0032-.01133.006-.02097.0119-.02693l.035-.09519.046-.08409c.1189-.22528.249-.42677.4029-.59177zm-.4965 1.01854h-.3189c-.165.33158-.2475.70918-.2618 1.08835h.3792c.0127-.37917.0825-.74566.2015-1.08835zm-.1999 1.27719h-.3792c.0127.3791.1063.7567.2618 1.0883h.3188c-.1189-.3427-.1903-.7108-.2014-1.0883zm-.0238 1.2771c.1888.3189.4267.6045.7218.8282h.0825c-.2015-.2364-.3792-.5204-.5093-.8282zm1.1946.0016h-.6981c.1412.3189.3427.6029.568.8281h.4141c-.1174-.2363-.2126-.5203-.284-.8281zm.3903 1.0169h-.3078c.165.1301.3427.2237.5458.2951-.0841-.0825-.1666-.1888-.238-.2951zm.2364 0c.1539.2237.3316.3538.5204.3903v-.3903zm-.119-.1903h.6394v-.8282h-.9583c.0825.3189.1888.6045.3189.8282zm-.3538-1.017h.9932v-1.0883h-1.1122c0 .3775.0476.7567.119 1.0883zm-.119-1.27714h1.1122v-1.08835h-.9932c-.0714.34269-.119.70918-.119 1.08835zm.1539-1.27873h.9583v-.82816h-.6394c-.1174.20149-.2237.46009-.2951.75677-.0068.01268-.0099.02537-.0131.03805v.00002c-.0028.01111-.0055.02222-.0107.03332zm.4252-1.01695h.5331v-.40298c-.1904.03649-.3681.17769-.5331.40298zm-20.92614 5.21802-1.64522-3.97578.01269 3.97578h-1.170843v-5.12283h1.834013l1.61983 3.82033-.0238-3.82033h1.15974v5.12283zm19.95834 4.6263-.3316 1.0281h-1.3247l1.8927-5.1102h1.6198l1.8816 5.1102h-1.4897l-.3316-1.0281zm.9932-3.0889h-.0238l-.6632 2.1529h1.3025zm-22.43017 2.1767h1.91651v-.9821h-1.91651v-1.1946h2.0704v-.9821h-3.395143v5.0991h1.324743zm.50927 5.3243c.57908 0 .87576.3665.99316.852h.71076c-.0825-.9218-.80436-1.4549-1.70392-1.4676-1.207336 0-1.9292 1.0297-1.9292 2.2592 0 1.2185.721864 2.2481 1.9292 2.2481.96936 0 1.65632-.7092 1.70392-1.7388h-.68696c-.0476.6267-.39029 1.1248-1.01696 1.1248-.86465 0-1.231134-.8154-1.231134-1.6325 0-.8297.366484-1.6452 1.231134-1.6452zm3.82033.6156-.00748-.0018c-.0452-.0106-.0936-.022-.22891-.022-.39028 0-.78057.3553-.85196.6853h-.01269v-.6028h-.60288v3.1111h.63937v-1.4786c0-.6854.35538-1.0646.79325-1.0646.06665 0 .13329.0117.19503.0225h.00008c.02642.0046.05195.0091.07619.0124zm6.44757.0587h.6394v3.1111h-.6394zm.6394-1.1836h-.6394v.6505h.6394zm-7.08856 2.7447c0-.8885.54417-1.6452 1.40882-1.6452.92336 0 1.47864.8884 1.37234 1.8213h-2.1418c0 .4855.2475.9233.78057.9233.37759 0 .60288-.1776.70917-.5203h.61557c-.1412.6742-.68538 1.0534-1.32474 1.0534-.91066 0-1.41993-.6743-1.41993-1.6325zm1.41041-1.0995c-.44898 0-.74566.3554-.76946.8282h1.50243c-.0238-.4379-.29509-.8282-.73297-.8282zm3.82035-.0602h-.0127c-.1888-.3427-.6029-.4855-.96937-.4855-.62668 0-1.25335.4966-1.25335 1.6198 0 .9345.43788 1.6563 1.35962 1.6563.3665 0 .733-.1412.8996-.4965h.0111v.414h.6155v-4.2931h-.6504zm-.7933 2.2592c-.55526 0-.80434-.5331-.80434-1.0646 0-.568.21259-1.1359.81544-1.1359.4966 0 .8044.4029.8044 1.101.0016.5315-.2348 1.0995-.8155 1.0995zm3.4063-3.5951h.6393v.9345h.5791v.5092h-.5791v1.6691c0 .2824.0238.4251.3078.4251.0936 0 .1777 0 .2713-.0238v.5331c-.0514.004-.101.0097-.1501.0152-.0872.01-.1726.0197-.264.0197-.6742 0-.7932-.284-.8043-.7932v-1.8452h-.4855v-.5092h.4855zm10.4472.9345h-.6394v3.1111h.6394zm4.2582.4727c.1888-.3442.5203-.5568.9106-.5568.6283 0 1.0297.3681 1.0297 1.0629v2.1307h-.6378v-1.953c-.0111-.4854-.1888-.698-.568-.698-.4378 0-.7091.3553-.7091.817v1.834h-.6394v-3.1111h.6029v.4617zm-4.2582-1.6563h-.6394v.6505h.6394zm-3.135 1.6563c.1888-.3442.5204-.5568.9107-.5568.6266 0 1.0296.3681 1.0312 1.0629v2.1307h-.6394v-1.953c-.0126-.4854-.2014-.698-.5679-.698-.4379 0-.7092.3553-.7092.817v1.834h-.6394v-3.1111h.6029v.4617zm-2.7923 2.0942c.9107 0 .9472-.6631.9472-1.2422h.0016v-2.5083h.698v2.7574c0 1.0994-.652 1.6436-1.6452 1.6436-.9931 0-1.6563-.5442-1.6563-1.6436v-2.7574h.7092v2.5083c0 .5791.0349 1.2422.9455 1.2422zm7.7613-2.651c-.9345 0-1.4675.6854-1.4675 1.6452 0 .9456.533 1.6325 1.4675 1.6325.9344 0 1.4675-.6854 1.4675-1.6325-.0016-.9583-.5346-1.6452-1.4675-1.6452zm0 2.7446c-.5807 0-.8282-.5679-.8282-1.0994 0-.5442.2491-1.101.8282-1.101s.8282.5568.8282 1.101c0 .5315-.2491 1.0994-.8282 1.0994zm-8.9321-11.8274v5.1086h1.3359v-1.999h.5568c.5948 0 .6151.2177.672.8269l.0023.025.0146.1388c.0408.3909.0765.7326.1504 1.0083h1.431c-.0975-.3246-.1656-.82-.213-1.1642v-.0001-.0001l-.0123-.089-.0036-.0271c-.1039-.7761-.161-1.2027-1.0847-1.2278v-.0349l.0314-.0052c.1492-.0243.4151-.0675.7016-.255.2252-.1539.4378-.3903.4378-.9456s-.1903-.8392-.3315-.9931c-.284-.3205-.6156-.3665-1.4676-.3665zm2.732 1.5722c0 .1539-.0587.4728-.3427.5791-.119.0349-.2602.0349-.5553.0349h-.4966v-1.2533h.4966c.3903 0 .898 0 .898.6393zm-3.135-.5806v-.9821h-3.5839v5.0991h3.6442v-.9932h-2.3433v-1.0883h2.1529v-.9821h-2.1529v-1.0534zm-8.67027-.9932h2.02281c.56796 0 1.32476.0587 1.82136.4252.7091.5093.8995 1.3612.8995 2.118 0 1.1359-.3316 1.9625-1.3009 2.3655-.4855.2015-1.0773.2015-1.40886.2015h-2.03391zm1.35964 4.1281h.56798c.88685-.0111 1.45485-.4141 1.45485-1.5976 0-1.5611-1.0884-1.5611-1.50245-1.5611h-.52038zm17.50873-4.1281v5.1102h3.4904v-1.0059h-2.1418v-4.1043zm-19.31894.0111v.9821h-2.28299v1.0534h2.1529v.9821h-2.1529v1.0883h2.34169v.9932h-3.65374v-5.0991zm-.72186-1.5849h1.9165l.33159 1.0296h1.50241l-1.8927-5.12283h-1.61983l-1.8816 5.12283h1.32474zm.97094-3.08738h.0238l.61557 2.14178h-1.30094zm6.78396-.95349-1.7214 5.07047h-1.5849l-1.69124-5.12283h1.46594l1.0883 3.71563 1.1487-3.71563h1.2644.0492 1.4898l1.0407 2.1529 1.0884-2.1529h1.3612l-1.8705 3.31263v1.8102h-1.3359v-1.8689zm15.7763 11.31657h-30.131113v1.3486h30.131113zm1.7737.5966c-.0032-.3983-.3094-.7156-.7092-.7156-.3903 0-.7091.3205-.7091.7219 0 .403.3188.7219.7091.7219.3998 0 .706-.3157.7092-.7155zm-.7092.6219c-.3189 0-.579-.2713-.579-.6156 0-.3427.2601-.6156.579-.6156.3205 0 .5807.2713.5807.6156-.0016.3427-.2618.6156-.5807.6156zm.1301-.6029v.0111c.0714.0127.119.0714.1428.1888.0127.1301.0349.1777.0476.2015h-.1301c-.0238-.0238-.0492-.0952-.0603-.2015-.0238-.1063-.0714-.1412-.1777-.1412h-.0825v.3427h-.1301v-.8044c.0322 0 .0621-.0023.0942-.0049.0376-.003.0783-.0062.1295-.0062.119 0 .2015.0238.2491.0587s.0714.0825.0714.165c0 .1079-.0587.1666-.1539.1904zm-.2618-.0365h.0952c.1079 0 .1904-.0476.1888-.1412 0-.0698-.0476-.1412-.1888-.1412-.0476 0-.0714 0-.0952.0111z" fill="#143664" fill-rule="evenodd"/></svg>

<svg width="32" height="32" viewBox="0 0 32 32" fill="none" xmlns="http://www.w3.org/2000/svg">
<path fill-rule="evenodd" clip-rule="evenodd" d="M22.0272 8.25493L22.0748 8.18354C22.5951 7.50927 23.3646 7.09519 24.2039 7.0238C24.2879 7.01111 24.3704 7 24.4529 7C24.5354 7 24.6306 7.01111 24.7115 7.0238C26.2362 7.15389 27.4324 8.43262 27.4324 9.99375C27.4324 11.5422 26.2378 12.8209 24.7115 12.9621C24.629 12.9732 24.5339 12.9732 24.4514 12.9732C24.3578 12.9732 24.2753 12.9732 24.1801 12.9621C22.6665 12.8209 21.4719 11.5438 21.4719 9.99375C21.4719 9.39088 21.648 8.82291 21.9685 8.33743L22.0272 8.25493ZM25.2815 12.399L25.2815 12.399L25.2815 12.399C25.2138 12.4999 25.1468 12.5998 25.0669 12.6781C25.2573 12.6067 25.435 12.5131 25.6 12.383H25.2922L25.2815 12.399ZM25.6936 11.3645C25.6111 11.6723 25.5175 11.9563 25.3985 12.1927H25.811C26.0474 11.9674 26.2378 11.6834 26.379 11.3645H25.6936ZM26.6645 10.0874H25.8364C25.8364 10.4665 25.8015 10.8441 25.7301 11.1757H26.4631C26.582 10.8441 26.6534 10.4649 26.6645 10.0874ZM26.4631 8.81021H25.7301C25.8015 9.14179 25.8364 9.50828 25.8364 9.89856H26.6645C26.6519 9.50828 26.582 9.14179 26.4631 8.81021ZM26.0728 12.1927H26.168C26.452 11.969 26.701 11.685 26.8771 11.3645H26.582C26.452 11.6723 26.2854 11.9563 26.0728 12.1927ZM26.6645 11.1757H26.9723C27.1373 10.8441 27.2214 10.4665 27.2452 10.0874H26.8549C26.8422 10.4649 26.7835 10.833 26.6645 11.1757ZM26.8549 9.89856H27.2452C27.2214 9.50828 27.1373 9.14179 26.9723 8.81021H26.6645C26.7835 9.14179 26.8438 9.50828 26.8549 9.89856ZM26.8771 8.62142C26.701 8.30253 26.452 8.01854 26.168 7.79326H26.0728C26.287 8.02965 26.452 8.30253 26.582 8.62142H26.8771ZM25.6952 8.61983H26.3806C26.2394 8.30094 26.0506 8.01696 25.8142 7.79167H25.4001C25.5175 8.02806 25.6127 8.30094 25.6952 8.61983ZM25.2922 7.60288H25.6C25.435 7.47278 25.2573 7.36648 25.0669 7.30778C25.151 7.39028 25.2208 7.48389 25.2922 7.60288ZM25.0669 7.60446C24.913 7.37918 24.7369 7.23639 24.5465 7.20149V7.60446H25.0669ZM25.1859 7.79326H24.5481V8.62142H25.4937C25.4112 8.30253 25.3049 8.01854 25.1859 7.79326ZM25.5413 8.81021H24.5465V9.89856H25.6476C25.6476 9.50828 25.6127 9.14179 25.5413 8.81021ZM25.6476 10.0874H24.5465V11.1757H25.5413C25.6127 10.8441 25.6476 10.4649 25.6476 10.0874ZM25.4921 11.3661H24.5465H24.545V12.1942H25.1843C25.3033 11.969 25.4096 11.685 25.4921 11.3661ZM25.0669 12.383H24.5465V12.7733C24.7353 12.7368 24.913 12.6067 25.0669 12.383ZM23.601 7.60288C23.674 7.48547 23.7549 7.39028 23.8263 7.30778C23.6486 7.37918 23.4709 7.47278 23.3059 7.60288H23.601ZM23.2567 8.40882C23.3281 8.18354 23.4106 7.97095 23.5058 7.79326H23.079C22.8664 7.99474 22.6887 8.25335 22.546 8.55002C22.5348 8.57382 22.5237 8.59762 22.511 8.62142H23.2091V8.59762L23.2567 8.40882ZM22.2286 9.89856H23.0568C23.0679 9.51939 23.1044 9.1529 23.1631 8.81021H22.4412C22.3111 9.14179 22.2398 9.51939 22.2286 9.89856ZM22.4412 11.1757H23.1631C23.1044 10.8441 23.0568 10.4665 23.0568 10.0874H22.2286C22.2398 10.4649 22.3111 10.8441 22.4412 11.1757ZM22.7363 7.79167C22.5237 7.94556 22.3349 8.14705 22.1811 8.37234C22.1224 8.44373 22.0637 8.53892 22.0161 8.62142H22.3111C22.317 8.61042 22.3202 8.59941 22.323 8.58967L22.323 8.58965C22.3262 8.57832 22.329 8.56868 22.3349 8.56272L22.3699 8.46753L22.4159 8.38344C22.5348 8.15816 22.6649 7.95667 22.8188 7.79167H22.7363ZM22.2398 8.81021H21.9209C21.7559 9.14179 21.6734 9.51939 21.6591 9.89856H22.0383C22.051 9.51939 22.1208 9.1529 22.2398 8.81021ZM22.0399 10.0874H21.6607C21.6734 10.4665 21.767 10.8441 21.9225 11.1757H22.2413C22.1224 10.833 22.051 10.4649 22.0399 10.0874ZM22.0161 11.3645C22.2049 11.6834 22.4428 11.969 22.7379 12.1927H22.8204C22.6189 11.9563 22.4412 11.6723 22.3111 11.3645H22.0161ZM23.2107 11.3661H22.5126C22.6538 11.685 22.8553 11.969 23.0806 12.1942H23.4947C23.3773 11.9579 23.2821 11.6739 23.2107 11.3661ZM23.601 12.383H23.2932C23.4582 12.5131 23.6359 12.6067 23.839 12.6781C23.7549 12.5956 23.6724 12.4893 23.601 12.383ZM23.8374 12.383C23.9913 12.6067 24.169 12.7368 24.3578 12.7733V12.383H23.8374ZM23.7184 12.1927H24.3578V11.3645H23.3995C23.482 11.6834 23.5883 11.969 23.7184 12.1927ZM23.3646 11.1757H24.3578V10.0874H23.2456C23.2456 10.4649 23.2932 10.8441 23.3646 11.1757ZM23.2456 9.89856H24.3578V8.81021H23.3646C23.2932 9.1529 23.2456 9.51939 23.2456 9.89856ZM23.3995 8.61983H24.3578V7.79167H23.7184C23.601 7.99316 23.4947 8.25176 23.4233 8.54844C23.4165 8.56112 23.4134 8.57381 23.4102 8.58649L23.4102 8.58651C23.4074 8.59762 23.4047 8.60873 23.3995 8.61983ZM23.8247 7.60288H24.3578V7.1999C24.1674 7.23639 23.9897 7.37759 23.8247 7.60288ZM2.89856 12.8209L1.25334 8.84512L1.26603 12.8209H0.095187V7.69807H1.9292L3.54903 11.5184L3.52523 7.69807H4.68497V12.8209H2.89856ZM22.8569 17.4472L22.5253 18.4753H21.2006L23.0933 13.3651H24.7131L26.5947 18.4753H25.105L24.7734 17.4472H22.8569ZM23.8501 14.3583H23.8263L23.1631 16.5112H24.4656L23.8501 14.3583ZM1.41993 16.535H3.33644V15.5529H1.41993V14.3583H3.49033V13.3762H0.095187V18.4753H1.41993V16.535ZM1.9292 21.8593C2.50828 21.8593 2.80496 22.2258 2.92236 22.7113H3.63312C3.55062 21.7895 2.82876 21.2564 1.9292 21.2437C0.721864 21.2437 0 22.2734 0 23.5029C0 24.7214 0.721864 25.751 1.9292 25.751C2.89856 25.751 3.58552 25.0418 3.63312 24.0122H2.94616C2.89856 24.6389 2.55587 25.137 1.9292 25.137C1.06455 25.137 0.698066 24.3216 0.698066 23.5045C0.698066 22.6748 1.06455 21.8593 1.9292 21.8593ZM5.74953 22.4749L5.74205 22.4731C5.69685 22.4625 5.64845 22.4511 5.51314 22.4511C5.12286 22.4511 4.73257 22.8064 4.66118 23.1364H4.64849V22.5336H4.04561V25.6447H4.68498V24.1661C4.68498 23.4807 5.04036 23.1015 5.47823 23.1015C5.54488 23.1015 5.61152 23.1132 5.67326 23.124L5.67334 23.124C5.69976 23.1286 5.72529 23.1331 5.74953 23.1364V22.4749ZM12.1971 22.5336H12.8365V25.6447H12.1971V22.5336ZM12.8365 21.35H12.1971V22.0005H12.8365V21.35ZM5.74794 24.0947C5.74794 23.2062 6.29211 22.4495 7.15676 22.4495C8.08012 22.4495 8.6354 23.3379 8.5291 24.2708H6.3873C6.3873 24.7563 6.6348 25.1941 7.16787 25.1941C7.54546 25.1941 7.77075 25.0165 7.87704 24.6738H8.49261C8.35141 25.348 7.80723 25.7272 7.16787 25.7272C6.25721 25.7272 5.74794 25.0529 5.74794 24.0947ZM7.15835 22.9952C6.70937 22.9952 6.41269 23.3506 6.38889 23.8234H7.89132C7.86752 23.3855 7.59623 22.9952 7.15835 22.9952ZM10.9787 22.935H10.966C10.7772 22.5923 10.3631 22.4495 9.99663 22.4495C9.36995 22.4495 8.74328 22.9461 8.74328 24.0693C8.74328 25.0038 9.18116 25.7256 10.1029 25.7256C10.4694 25.7256 10.8359 25.5844 11.0025 25.2291H11.0136V25.6431H11.6291V21.35H10.9787V22.935ZM10.1854 25.1942C9.63014 25.1942 9.38106 24.6611 9.38106 24.1296C9.38106 23.5616 9.59365 22.9937 10.1965 22.9937C10.6931 22.9937 11.0009 23.3966 11.0009 24.0947C11.0025 24.6262 10.7661 25.1942 10.1854 25.1942ZM13.5917 21.5991H14.231V22.5336H14.8101V23.0428H14.231V24.7119C14.231 24.9943 14.2548 25.137 14.5388 25.137C14.6324 25.137 14.7165 25.137 14.8101 25.1132V25.6463C14.7587 25.6503 14.7091 25.656 14.66 25.6615H14.66H14.66C14.5728 25.6715 14.4874 25.6812 14.396 25.6812C13.7218 25.6812 13.6028 25.3972 13.5917 24.888V23.0428H13.1062V22.5336H13.5917V21.5991ZM24.0389 22.5336H23.3995V25.6447H24.0389V22.5336ZM28.2971 23.0063C28.4859 22.6621 28.8174 22.4495 29.2077 22.4495C29.836 22.4495 30.2374 22.8176 30.2374 23.5124V25.6431H29.5996V23.6901C29.5885 23.2047 29.4108 22.9921 29.0316 22.9921C28.5938 22.9921 28.3225 23.3474 28.3225 23.8091V25.6431H27.6831V22.532H28.286V22.9937L28.2971 23.0063ZM24.0389 21.35H23.3995V22.0005H24.0389V21.35ZM20.9039 23.0063C21.0927 22.6621 21.4243 22.4495 21.8146 22.4495C22.4412 22.4495 22.8442 22.8176 22.8458 23.5124V25.6431H22.2064V23.6901C22.1938 23.2047 22.005 22.9921 21.6385 22.9921C21.2006 22.9921 20.9293 23.3474 20.9293 23.8091V25.6431H20.2899V22.532H20.8928V22.9937L20.9039 23.0063ZM18.1116 25.1005C19.0223 25.1005 19.0588 24.4374 19.0588 23.8583H19.0604V21.35H19.7584V24.1074C19.7584 25.2068 19.1064 25.751 18.1132 25.751C17.1201 25.751 16.4569 25.2068 16.4569 24.1074V21.35H17.1661V23.8583C17.1661 24.4374 17.201 25.1005 18.1116 25.1005ZM25.8729 22.4495C24.9384 22.4495 24.4054 23.1349 24.4054 24.0947C24.4054 25.0403 24.9384 25.7272 25.8729 25.7272C26.8073 25.7272 27.3404 25.0418 27.3404 24.0947C27.3388 23.1364 26.8058 22.4495 25.8729 22.4495ZM25.8729 25.1941C25.2922 25.1941 25.0447 24.6262 25.0447 24.0947C25.0447 23.5505 25.2938 22.9937 25.8729 22.9937C26.452 22.9937 26.7011 23.5505 26.7011 24.0947C26.7011 24.6262 26.452 25.1941 25.8729 25.1941ZM16.9408 13.3667V18.4753H18.2767V16.4763H18.8335C19.4283 16.4763 19.4486 16.694 19.5055 17.3032L19.5078 17.3282L19.5224 17.467C19.5632 17.8579 19.5989 18.1996 19.6728 18.4753H21.1038C21.0063 18.1507 20.9382 17.6553 20.8908 17.3111L20.8908 17.311L20.8908 17.3109L20.8785 17.2219L20.8749 17.1948C20.771 16.4187 20.7139 15.9921 19.7902 15.967V15.9321L19.8216 15.9269C19.9708 15.9026 20.2367 15.8594 20.5232 15.6719C20.7484 15.518 20.961 15.2816 20.961 14.7263C20.961 14.171 20.7707 13.8871 20.6295 13.7332C20.3455 13.4127 20.0139 13.3667 19.1619 13.3667H16.9408ZM19.6728 14.9389C19.6728 15.0928 19.6141 15.4117 19.3301 15.518C19.2111 15.5529 19.0699 15.5529 18.7748 15.5529H18.2782V14.2996H18.7748C19.1651 14.2996 19.6728 14.2996 19.6728 14.9389ZM16.5378 14.3583V13.3762H12.9539V18.4753H16.5981V17.4821H14.2548V16.3938H16.4077V15.4117H14.2548V14.3583H16.5378ZM7.86753 13.3651H9.89034C10.4583 13.3651 11.2151 13.4238 11.7117 13.7903C12.4208 14.2996 12.6112 15.1515 12.6112 15.9083C12.6112 17.0442 12.2796 17.8708 11.3103 18.2738C10.8248 18.4753 10.233 18.4753 9.90144 18.4753H7.86753V13.3651ZM9.22717 17.4932H9.79515C10.682 17.4821 11.25 17.0791 11.25 15.8956C11.25 14.3345 10.1616 14.3345 9.74755 14.3345H9.22717V17.4932ZM26.7359 13.3651V18.4753H30.2263V17.4694H28.0845V13.3651H26.7359ZM7.41696 13.3762V14.3583H5.13397V15.4117H7.28687V16.3938H5.13397V17.4821H7.47566V18.4753H3.82192V13.3762H7.41696ZM6.6951 11.7913H8.6116L8.94319 12.8209H10.4456L8.5529 7.69807H6.93307L5.05147 12.8209H6.37621L6.6951 11.7913ZM7.66604 8.70392H7.68984L8.30541 10.8457H7.00447L7.66604 8.70392ZM14.45 7.75043L12.7286 12.8209H11.1437L9.45246 7.69807H10.9184L12.0067 11.4137L13.1554 7.69807H14.4198H14.469H15.9588L16.9995 9.85097L18.0879 7.69807H19.4491L17.5786 11.0107V12.8209H16.2427V10.952L14.45 7.75043ZM30.2263 19.067H0.095187V20.4156H30.2263V19.067ZM32 19.6636C31.9968 19.2653 31.6906 18.948 31.2908 18.948C30.9005 18.948 30.5817 19.2685 30.5817 19.6699C30.5817 20.0729 30.9005 20.3918 31.2908 20.3918C31.6906 20.3918 31.9968 20.0761 32 19.6763V19.6636ZM31.2908 20.2855C30.9719 20.2855 30.7118 20.0142 30.7118 19.6699C30.7118 19.3272 30.9719 19.0543 31.2908 19.0543C31.6113 19.0543 31.8715 19.3256 31.8715 19.6699C31.8699 20.0126 31.6097 20.2855 31.2908 20.2855ZM31.4209 19.6826V19.6937C31.4923 19.7064 31.5399 19.7651 31.5637 19.8825C31.5764 20.0126 31.5986 20.0602 31.6113 20.084H31.4812C31.4574 20.0602 31.432 19.9888 31.4209 19.8825C31.3971 19.7762 31.3495 19.7413 31.2432 19.7413H31.1607V20.084H31.0306V19.2796C31.0628 19.2796 31.0927 19.2773 31.1248 19.2747C31.1624 19.2717 31.2031 19.2685 31.2543 19.2685C31.3733 19.2685 31.4558 19.2923 31.5034 19.3272C31.551 19.3621 31.5748 19.4097 31.5748 19.4922C31.5748 19.6001 31.5161 19.6588 31.4209 19.6826ZM31.1591 19.6461H31.2543C31.3622 19.6461 31.4447 19.5985 31.4431 19.5049C31.4431 19.4351 31.3955 19.3637 31.2543 19.3637C31.2067 19.3637 31.1829 19.3637 31.1591 19.3748V19.6461Z" fill="#143664"/>
</svg>
